docs/assets/lockicon.svg

<svg width="109" height="134" viewBox="0 0 109 134" fill="none" xmlns="http://www.w3.org/2000/svg">
<path d="M54.3568 77.8696C52.142 77.8696 50.3701 79.6832 50.3701 81.9502V91.5847C50.3701 93.8517 52.142 95.6652 54.3568 95.6652C56.5716 95.6652 58.3434 93.8517 58.3434 91.5847V81.9502C58.3434 79.6832 56.5716 77.8696 54.3568 77.8696Z" fill="#3A2657"/>
<path d="M55.2431 41.5985C50.2598 41.1451 44.8335 44.5455 43.8369 49.8729C42.9509 54.5201 43.1724 59.3941 42.9509 64.268C50.8135 64.268 58.1224 64.268 65.7635 64.268C65.7635 60.1875 65.8742 56.3337 65.7635 52.4799C65.542 46.9258 61.1124 42.1652 55.2431 41.5985Z" fill="#3A2657"/>
<path d="M108.621 25.3899C108.621 22.2161 106.738 20.4026 103.416 20.4026C96.9928 20.4026 90.6805 19.7225 84.4791 18.1356C75.0661 15.642 66.7606 10.9947 59.4517 4.30721C58.2336 3.17373 55.908 0 54.2469 0C52.8073 0 50.8139 2.72034 49.8173 3.74047C40.4043 12.6949 29.2195 17.9089 16.5951 19.4958C12.9407 19.9492 9.28623 20.1759 5.63179 20.2892C1.86662 20.4026 0.205507 22.1028 0.205507 25.8433C0.0947668 35.2511 -0.126714 44.7723 0.0947668 54.1802C0.316248 65.9683 1.75588 77.6431 5.63179 88.8645C10.7259 103.26 19.4744 114.708 31.988 123.096C38.411 127.403 45.2769 130.576 52.3643 133.183C53.6932 133.637 54.9113 133.75 56.1295 133.297C67.3143 129.216 77.6132 123.776 86.3617 115.388C95.4424 106.66 101.312 96.1188 104.745 83.8772C106.959 75.8296 108.288 67.6685 108.51 59.3942C108.842 48.1727 108.731 36.838 108.621 25.3899ZM77.7239 96.6855C77.7239 100.086 76.6165 101.219 73.405 101.219C67.0928 101.219 60.7806 101.219 54.4684 101.219C48.1562 101.219 41.844 101.219 35.5317 101.219C32.2095 101.219 31.1021 100.086 31.1021 96.5722C31.1021 87.2777 31.1021 78.0965 31.1021 68.802C31.1021 66.7617 31.5451 65.0615 33.7599 64.3814C34.0921 64.2681 34.3136 63.4747 34.3136 63.0213C34.4243 58.9408 34.2029 54.8602 34.5351 50.8931C35.421 40.6918 43.948 32.7575 54.0254 32.4174C63.8813 32.1907 72.8513 39.6717 74.0695 49.7596C74.6232 53.9535 74.4017 58.374 74.4017 62.6812C74.4017 63.7014 74.5124 64.2681 75.6198 64.6081C77.0595 65.0615 77.6132 66.3084 77.6132 67.8952C77.6132 70.8423 77.6132 73.7893 77.6132 76.7363C77.7239 83.5372 77.7239 90.1114 77.7239 96.6855Z" fill="#3A2657"/>
</svg>

<svg xmlns="http://www.w3.org/2000/svg" width="109" height="134" fill="#3a2657" xmlns:v="https://vecta.io/nano"><path d="M54.357 77.87c-2.215 0-3.987 1.814-3.987 4.081v9.635c0 2.267 1.772 4.081 3.987 4.081s3.987-1.814 3.987-4.081V81.95c0-2.267-1.772-4.081-3.987-4.081zm.886-36.271c-4.983-.453-10.41 2.947-11.406 8.274-.886 4.647-.664 9.521-.886 14.395h22.813V52.48c-.221-5.554-4.651-10.315-10.52-10.881zm53.378-16.209c0-3.174-1.883-4.987-5.205-4.987-6.423 0-12.736-.68-18.937-2.267-9.413-2.494-17.719-7.141-25.027-13.828C58.234 3.174 55.908 0 54.247 0c-1.44 0-3.433 2.72-4.43 3.74-9.413 8.954-20.598 14.168-33.222 15.755-3.654.453-7.309.68-10.963.793-3.765.113-5.426 1.814-5.426 5.554L.095 54.18c.221 11.788 1.661 23.463 5.537 34.684 5.094 14.395 13.843 25.843 26.356 34.232 6.423 4.307 13.289 7.48 20.376 10.087 1.329.454 2.547.567 3.765.114 11.185-4.081 21.484-9.521 30.232-17.909 9.081-8.728 14.95-19.269 18.383-31.511 2.214-8.048 3.543-16.209 3.765-24.483.332-11.221.221-22.556.111-34.004zM77.724 96.686c0 3.4-1.107 4.533-4.319 4.533H54.468 35.532c-3.322 0-4.43-1.133-4.43-4.647v-27.77c0-2.04.443-3.741 2.658-4.421.332-.113.554-.907.554-1.36.111-4.08-.111-8.161.221-12.128.886-10.201 9.413-18.136 19.49-18.476 9.856-.227 18.826 7.254 20.044 17.342.554 4.194.332 8.614.332 12.922 0 1.02.111 1.587 1.218 1.927 1.44.453 1.993 1.7 1.993 3.287v8.841l.111 19.949z"/></svg>
